packages/web/src/assets/images/icons/close-canvas.svg

<svg fill="none" height="12" viewBox="0 0 18 12" width="18" xmlns="http://www.w3.org/2000/svg"><path d="m.375 11.75v-1.4375h12.4583v1.4375zm16.2437-1.2458-4.5281-4.52816 4.5042-4.50416 1.0302 1.0302-3.474 3.47396 3.498 3.49792zm-16.2437-3.83337v-1.4375h9.58333v1.4375zm0-4.98333v-1.4375h12.4583v1.4375z" fill="#606266"/></svg>

<svg width="18" height="12" viewBox="0 0 18 12" fill="none" xmlns="http://www.w3.org/2000/svg">
    <path d="M0.375 11.75V10.3125H12.8333V11.75H0.375ZM16.6187 10.5042L12.0906 5.97604L16.5948 1.47188L17.625 2.50208L14.151 5.97604L17.649 9.47396L16.6187 10.5042ZM0.375 6.67083V5.23333H9.95833V6.67083H0.375ZM0.375 1.6875V0.25H12.8333V1.6875H0.375Z"
          fill="#606266"/>
</svg>
